!!!OTL: 78. Gas-nign
!!!Genre:	Gas-nign
!!!Mode:	Minor
!!!Listening/dance:	listening
!!!:	*B-
!!!One_Mode:	no
**kern
*thru
*I"P1
*clefG2
*k[b-e-]
*g:
*M3/8
*>A
!LO:TX:a:i:t=G-minor
=1
8b-L
8ddJ
16ccLL
16ddJJ
=2
4g
(16aLL
16b-JJ)
=3
8ccL
8b-J
24b-LL
24a
24gJJ
=4
8b-L
8ddJ
16ccLL
16ddJJ
=5
4g
16aLL
16b-JJ
=6
8ccL
8b-J
24b-LL
24a
24gJJ
=7
!LO:TX:b:Bi:t=Fine
4g
8r
=8:|!
*>A
!LO:TX:a:i:t=G-minor
=1
8b-L
8ddJ
16ccLL
16ddJJ
=2
4g
(16aLL
16b-JJ)
=3
8ccL
8b-J
24b-LL
24a
24gJJ
=4
8b-L
8ddJ
16ccLL
16ddJJ
=5
4g
16aLL
16b-JJ
=6
8ccL
8b-J
24b-LL
24a
24gJJ
=7
!LO:TX:b:Bi:t=Fine
4g
8r
=8:|!
*>B
!!!Begin-Modulation
*-
